Obsidian-SemiLight/actions/22s/view-filter.svg

<svg viewBox="0 0 22 22" xmlns="http://www.w3.org/2000/svg"><path d="m5 3-1 1v1 .3046875l5 7.0625005v3.632812.039062l3.990234 2.960938h.009766v-6.632812l5-7.0625005v-1.3046875l-1-1zm0 1h12v.9882812l-4.964844 7.0117188h-.035156v.048828.951172 4.019531l-2-1.484375v-2.535156-.951172-.048828h-.0351562l-4.9648438-7.0117188zm1 1 2 3v-2l2-1z" fill="#4d4d4d"/></svg>

<svg xmlns="http://www.w3.org/2000/svg" viewBox="0 0 22 22">
  <defs id="defs3051">
    <style type="text/css" id="current-color-scheme">
      .ColorScheme-Text {
        color:#4d4d4d;
      }
      </style>
  </defs>
 <path 
    style="fill:currentColor;fill-opacity:1;stroke:none" 
    d="M 5 3 L 4 4 L 4 5 L 4 5.3046875 L 9 12.367188 L 9 16 L 9 16.039062 L 12.990234 19 L 13 19 L 13 12.367188 L 18 5.3046875 L 18 4 L 17 3 L 5 3 z M 5 4 L 17 4 L 17 4.9882812 L 12.035156 12 L 12 12 L 12 12.048828 L 12 13 L 12 17.019531 L 10 15.535156 L 10 13 L 10 12.048828 L 10 12 L 9.9648438 12 L 5 4.9882812 L 5 4 z M 6 5 L 8 8 L 8 6 L 10 5 L 6 5 z "
	class="ColorScheme-Text"
    />  
</svg>
